**kern	**silbe
*ICvox	*
*b-:	*
*M4/4	*
*clefC3	*
r;	.
=1	=1
1r	.
=2	=2
1r	.
=3	=3
1r	.
=4	=4
1r	.
=5	=5
1r	.
=6	=6
1r	.
=7	=7
1r	.
=8	=8
1r	.
=9	=9
8.r	.
16~G-	I
16~B-	got
8d-	your
16d-	let-
16c	-ter
8.r	.
16c	from
16c	the
8d-	post
=10	=10
8e-q	_
8f	man
16e-	just
16d-	the
16e-	o-
16d-	-ther
16d-Q	_
16e-	day
[16d-	_
2d-]	_
=11	=11
4r	.
16B-	So
16d-	I
16d-	de
16cQ	_
16d-	ci-
16c	-ded
16c	to
8c	write
16c	you
8F	this
[16c	song
=12	=12
16c]	_
32d-	_
32c	_
[8B-	_
2B-]	_
4r	.
=13	=13
8.r	.
16D-	And
16d-	just
16d-	to
16d-	let
16d-Q	_
[16e-	you
16e-]	_
[8.e-	know
16e-]	_
8r	.
16d-	ex-
=14	=14
8e-q	_
8f	-act-
16e-	-ly
16d-	the
16e-	way
16d-	I
16d-Q	_
16e-	feel
[16d-	_
2d-]	_
=15	=15
8.r	.
16E-	to
16d-	let
16d-	you
32d-	know
[16.c	_
8c]	_
16F	my
32d-	love's
[32c	_
8c]	_
16c	for
16B-Q	_
[16c	real
=16	=16
16c]	_
32d-	_
32c	_
[8B-	_
4.B-]	_
8~fq	_
8~g-	Be
8e-q	_
8f	cause
16e-	I
16d-	_
=17	=17
4.d-	love
16e-	_
16d-Q	_
[16e-	you
4e-_	_
16e-]	_
8r	.
16~G-	and
=18	=18
8g-	I'll
16g-	do
[16g-	a
8g-]	_
16g-	ny-
16f	-thing
32e-	_
[16.d-	_
8d-_	_
4d-]	_
=19	=19
8.r	.
16~D-	I'll
16d-	give
16d-	you
16d-	my
[16c	heart
4c]	_
16r	.
16c	my
8d-q	_
8e-	ev
=20	=20
8d-q	_
8e-	'ry-
32e-	-thing
[16.d-	_
4d-]	_
8r	.
8e-q	_
8f	Be
8e-q	_
8f	cause
16e-	I
16d-	_
=21	=21
4.d-	love
16e-	_
16d-Q	_
[16e-	you
4e-_	_
16e-]	_
8r	.
16~G-	I'll
=22	=22
8g-	be
16g-	right
[16g-	by
8g-]	_
16g-	your
16e-Q	_
16f	side
16e-	_
[16d-	_
4d-]	_
8r	.
=23	=23
8.r	.
16E-	To
16d-	be
16d-	your
16cQ	_
32d-	light,
[16.c	_
8c]	_
16F	to
32d-	be
[32c	_
8c]	_
16c	your
16B-Q	_
[16c	guide
=24	=24
16c]	_
32d-	_
32c	_
[8B-	_
2B-]	_
4r	.
=25	=25
8.r	.
16~D-	If
16~B-	you
8d-	should
[16d-	fear
8d-]	_
8r	.
8r	.
8B-	that
=26	=26
8f	I
16e-	don-
16d-	-tr-
16e-	-real-
16d-	-ly
16d-Q	_
16e-	care
[16d-	_
2d-]	_
=27	=27
8.r	.
16D-	and
16d-	that
8d-	you're
[16c	star
16c]	_
8c	ting
[16B-	to
16B-]	_
8B-	lose
16E-Q	_
[16F	ground
=28	=28
2F]	_
2r	.
=29	=29
8.r	.
16~D-	just
16~B-	let
16d-	me
16d-	re-
16B-	-as-
8e-	-sure
8d-q	_
[8e-	you
8e-]	_
16r	.
16d-	that
=30	=30
8f	you
16e-	can
16d-	_
16e-	count
16d-	on
16d-Q	_
16e-	me
[16d-	_
2d-]	_
=31	=31
8.r	.
16D-	And
16d-	that
8d-	I'll
8~cq	_
[16~d-	al
16~d-]	_
8.~d-	ways
16r	.
16c	be
16F	a-
[16c	-round
=32	=32
16c]	_
32d-	_
32c	_
[8B-	_
4B-_	_
8B-]	_
8~fq	_
8~g-	Be
8~e-q	_
8~f	cause
16~e-	I
16~d-	_
=33	=33
4.d-	love
16e-	_
16d-Q	_
[16e-	you
4e-_	_
16e-]	_
8r	.
16A-	my
=34	=34
8g-	heart's
16g-	an
[16g-	o
8g-]	_
16g-	pen
16f	door!
32e-	_
[16.d-	_
8d-_	_
4d-]	_
=35	=35
8r	.
8cq	_
8d-	Girl
8cq	_
8d-	won't
16d-	you
[16c	please
4c]	_
12r	.
8d-q	_
12e-	come
8e-q	_
[12f	on
=36	=36
8d-q	_
16e-	_
32e-	in
[16.d-	_
16d-_	_
4d-]	_
8r	.
8e-q	_
8f]	Be
8e-q	_
8f	cause
16e-	I
16d-	_
=37	=37
4.d-	love
16e-	_
16d-Q	_
[16e-	you
4e-]	_
8.r	.
16~G-	I'll
=38	=38
8g-	be
16g-	right
16g-Q	_
[16a-	by
8g-	_
16g-	your
16e-Q	_
16f	side
16e-	_
[16d-	_
4d-]	_
8r	.
=39	=39
8.r	.
16E-	To
8d-	be
16d-	your
32c	light,
32d-	_
8c	_
16F	to
32d-	be
[32c	_
8c]	_
16c	your
16B-Q	_
[16c	guide
=40	=40
16c]	_
32d-	_
32c	_
[8B-	_
2B-]	_
4r	.
=41	=41
1r	.
=42	=42
1r	.
=43	=43
1r	.
=44	=44
1r	.
=45	=45
1r	.
=46	=46
1r	.
=47	=47
1r	.
=48	=48
1r	.
=49	=49
8.r	.
16~D-	If
16~B-	you
8d-	should
[16d-	fear
8d-]	_
8r	.
8r	.
8B-	that
=50	=50
8e-q	_
8f	I
16e-	don-
16d-	-tr-
16e-	-real-
16d-	-ly
16d-Q	_
16e-	care
[16d-	_
2d-]	_
=51	=51
8.r	.
16~D-	and
16d-	that
8d-	you're
[16c	star
16c]	_
8c	ting
[16B-	to
16B-]	_
8B-	lose
16E-Q	_
[16F	ground
=52	=52
2F]	_
2r	.
=53	=53
8.r	.
16~D-	just
16B-	let
16d-	me
16d-	re-
16B-	-as-
8e-	-sure
8d-q	_
[8e-	you
8e-]	_
16r	.
16d-	that
=54	=54
8f	you
8f	can
8g-q	_
8a-]	count
16a-	on
16~e-Q	_
16~f	me
32~e-	_
[16.d-	_
8d-_	_
4d-]	_
=55	=55
8.r	.
16D-	And
16d-	I
8d-	will
32c	al
32d-	_
16d-	_
8.F	ways
16r	.
16d-	be
16c	a
16B-Q	_
[16c	round
=56	=56
16c]	_
32d-	_
32c	_
[8B-	_
4B-_	_
8B-]	_
8fq	_
8g-	Be
8e-q	_
8f	cause
16e-	I
16d-	_
=57	=57
4.d-	love
16e-	_
16d-Q	_
[16e-	you
4e-_	_
16e-]	_
8r	.
16~G-	my
=58	=58
8g-	heart's
16g-	an
16g-Q	_
[16a-	o
8a-]	_
16a-	pen
16e-Q	_
16f	door
16e-	_
[16d-	_
4d-]	_
8r	.
=59	=59
8r	.
8cq	_
8d-	Girl
8cq	_
8d-	won't
16d-	you
16B-Q	_
[16c	please
4c]	_
12r	.
8d-q	_
12e-	come
8e-q	_
[12f	on
=60	=60
8d-q	_
16e-	_
32e-	in
[16.d-	_
16d-_	_
4d-]	_
8r	.
8e-q	_
8f]	Be
8e-q	_
8f	cause
16e-	I
16d-	_
=61	=61
4.d-	love
16e-	_
16d-Q	_
[16e-	you
4e-]	_
8.r	.
16~G-	I'll
=62	=62
8f	be
16f	right
16g-Q	_
[16a-	by
8a-]	_
16a-	your
16e-Q	_
16f	side
32e-	_
[16.d-	_
4d-]	_
8r	.
=63	=63
8.r	.
16E-	To
16d-	be
16d-	_
32c	your
32d-	_
[16c	light,
8c]	_
16F	to
32d-	be
[32c	_
8c]	_
16c	your
16B-Q	_
[16c	guide
=64	=64
16c]	_
32d-	_
32c	_
[8B-	_
4B-_	_
4.B-]	_
8r	.
=65	=65
1r	.
=66	=66
1r	.
=67	=67
1r	.
=68	=68
1r	.
=69	=69
1r	.
r;	.
r;	.
*-	*-
!!!ENC: Nathaniel Condit-Schultz
!!!MBID: 0419c733-d762-4225-ae9b-fd98892ec233
